lib/assets/icons/tabbar/pb_wallet_active.svg

<svg fill="none" height="24" viewBox="0 0 25 24" width="25" xmlns="http://www.w3.org/2000/svg" xmlns:xlink="http://www.w3.org/1999/xlink">
    <linearGradient id="a">
        <stop offset="0" stop-color="#c8c8c8"/>
        <stop offset=".204062" stop-color="#c8c8c8"/>
        <stop offset=".27559" stop-color="#fff"/>
        <stop offset=".433654" stop-color="#fff"/>
        <stop offset=".52559" stop-color="#c8c8c8"/>
        <stop offset=".693957" stop-color="#c8c8c8"/>
        <stop offset=".790896" stop-color="#fff"/>
        <stop offset="1" stop-color="#fff"/>
    </linearGradient>
    <linearGradient id="b" gradientUnits="userSpaceOnUse" x1="24.4574" x2="-2.67172" xlink:href="#a" y1="14.75" y2="1.63489"/>
    <linearGradient id="c" gradientUnits="userSpaceOnUse" x1="20.0851" x2="17.6534" xlink:href="#a" y1="14.25" y2="13.1005"/>
    <path d="m20 23h-17c-1.10457 0-2-.8954-2-2v-13c0-1.10457.89543-2 2-2h3l10.4671-4.55091c.5495-.23892 1.1844.05578 1.3565.62972l1.1764 3.92119h1c1.1046 0 2 .89543 2 2v3.5h.5c.5523 0 1 .4477 1 1v3c0 .5523-.4477 1-1 1h-.5v4.5c0 1.1046-.8954 2-2 2z" fill="#575757"/>
    <path d="m22 11.5c0-1.2656 0-2.45028 0-3.5 0-1.10457-.8954-2-2-2h-1m3 5.5h-4.5c-.5523 0-1 .4477-1 1v3c0 .5523.4477 1 1 1h4.5m0-5h.5c.5523 0 1 .4477 1 1v3c0 .5523-.4477 1-1 1h-.5m0 0v4.5c0 1.1046-.8954 2-2 2h-17c-1.10457 0-2-.8954-2-2v-13c0-1.10457.89543-2 2-2h3m0 0 10.4671-4.55091c.5495-.23892 1.1844.05578 1.3565.62972l1.1764 3.92119m-13 0h13" stroke="url(#b)" stroke-width="1.5"/>
    <circle cx="19" cy="14" fill="url(#c)" r="1"/>
</svg>

<svg width="25" height="24" viewBox="0 0 25 24" fill="none" xmlns="http://www.w3.org/2000/svg">
<path d="M20 23H3C1.89543 23 1 22.1046 1 21V8C1 6.89543 1.89543 6 3 6H6L16.4671 1.44909C17.0166 1.21017 17.6515 1.50487 17.8236 2.07881L19 6H20C21.1046 6 22 6.89543 22 8V11.5H22.5C23.0523 11.5 23.5 11.9477 23.5 12.5V15.5C23.5 16.0523 23.0523 16.5 22.5 16.5H22V21C22 22.1046 21.1046 23 20 23Z" fill="#575757"/>
<path d="M22 11.5C22 10.2344 22 9.04972 22 8C22 6.89543 21.1046 6 20 6H19M22 11.5H17.5C16.9477 11.5 16.5 11.9477 16.5 12.5V15.5C16.5 16.0523 16.9477 16.5 17.5 16.5H22M22 11.5H22.5C23.0523 11.5 23.5 11.9477 23.5 12.5V15.5C23.5 16.0523 23.0523 16.5 22.5 16.5H22M22 16.5C22 18.0069 22 19.5301 22 21C22 22.1046 21.1046 23 20 23H3C1.89543 23 1 22.1046 1 21V8C1 6.89543 1.89543 6 3 6H6M6 6L16.4671 1.44909C17.0166 1.21017 17.6515 1.50487 17.8236 2.07881L19 6M6 6H19" stroke="url(#paint0_linear)" stroke-width="1.5"/>
<circle cx="19" cy="14" r="1" fill="url(#paint1_linear)"/>
<defs>
<linearGradient id="paint0_linear" x1="24.4574" y1="14.75" x2="-2.67172" y2="1.63489" gradientUnits="userSpaceOnUse">
<stop stop-color="#C8C8C8"/>
<stop offset="0.204062" stop-color="#C8C8C8"/>
<stop offset="0.27559" stop-color="white"/>
<stop offset="0.433654" stop-color="white"/>
<stop offset="0.52559" stop-color="#C8C8C8"/>
<stop offset="0.693957" stop-color="#C8C8C8"/>
<stop offset="0.790896" stop-color="white"/>
<stop offset="1" stop-color="white"/>
</linearGradient>
<linearGradient id="paint1_linear" x1="20.0851" y1="14.25" x2="17.6534" y2="13.1005" gradientUnits="userSpaceOnUse">
<stop stop-color="#C8C8C8"/>
<stop offset="0.204062" stop-color="#C8C8C8"/>
<stop offset="0.27559" stop-color="white"/>
<stop offset="0.433654" stop-color="white"/>
<stop offset="0.52559" stop-color="#C8C8C8"/>
<stop offset="0.693957" stop-color="#C8C8C8"/>
<stop offset="0.790896" stop-color="white"/>
<stop offset="1" stop-color="white"/>
</linearGradient>
</defs>
</svg>
